img/cloud-element.svg

<svg fill="none" height="183" viewBox="0 0 778 183" width="778" xmlns="http://www.w3.org/2000/svg" xmlns:xlink="http://www.w3.org/1999/xlink"><linearGradient id="a" gradientUnits="userSpaceOnUse" x1="-360.612" x2="483.551" y1="-751.839" y2="266.684"><stop offset="0" stop-color="#ffa01d"/><stop offset=".22" stop-color="#ffa01d"/><stop offset=".44" stop-color="#32a4c9"/><stop offset=".74" stop-color="#0089c8"/><stop offset="1" stop-color="#0072b6"/></linearGradient><path d="m777.361 183s0-100.4274-65.53-116.9459c-26.449-6.6632-55.27-1.995-81.39 3.182-22.242 4.379-49.907 10.9724-69.866-1.3067-18.304-11.2816-25.322-33.4159-41.134-47.2511-26.02-22.75279-63.017-23.28149-95.178-16.17935-30.407 6.73305-59.727 19.57075-87.313 33.79495-10.757 5.5461-21.504 11.3714-33.178 14.5135-29.819 8.0398-61.252-10.9723-91.39-12.1793-46.268-1.8553-49.797 50.0141-97.282 59.8489-38.1229 7.891-62.6378-26.3233-98.129 28.928-12.30232 19.152-16.270156 53.595-15.971073 53.595z" fill="url(#a)"/><g fill="#fff"><path d="m190.36 117.336c4.272 0 8.352-2.976 8.352-9.216s-4.08-9.216-8.352-9.216c-4.296 0-8.376 2.976-8.376 9.216s4.08 9.216 8.376 9.216zm0-3.144c-2.76 0-4.464-2.352-4.464-6.072s1.704-5.976 4.464-5.976c2.736 0 4.464 2.256 4.464 5.976s-1.728 6.072-4.464 6.072zm16.423 3.072c3.384 0 4.968-1.896 5.784-3.888l-3.192-1.104c-.552 1.728-1.488 2.28-2.52 2.28-1.776 0-2.496-1.632-2.496-3.912 0-2.544.984-3.864 2.544-3.864 1.128 0 1.872.528 2.376 2.16l3.24-1.08c-.744-2.064-2.088-3.912-5.568-3.912-2.832 0-6.456 1.56-6.456 6.672 0 4.968 3.288 6.648 6.288 6.648zm13.096-.096c.84 0 2.256-.12 2.544-.192v-2.76c-.264.096-.84.144-1.272.144-1.392 0-1.776-.432-1.776-1.8v-5.544h3.288v-2.808h-3.288v-4.392h-3.84v4.392h-2.136v2.808h2.136v6.384c0 2.4.552 3.768 4.344 3.768zm8.394-14.328h2.544l3.576-4.152h-3.888zm-.72 14.352c1.896 0 3.288-.744 4.464-2.064 0 .72.12 1.344.288 1.872h3.84c-.264-.648-.36-1.584-.36-3.12v-4.92c0-3.288-1.44-5.016-4.944-5.016-3.192 0-5.112 1.128-6.384 2.28l1.632 2.208c1.176-.912 2.568-1.584 4.2-1.584 1.248 0 1.728.6 1.728 1.536v.312c-5.616.456-8.112 2.088-8.112 5.04 0 2.184 1.68 3.456 3.648 3.456zm1.536-2.904c-.84 0-1.416-.408-1.416-1.224 0-1.176 1.296-1.944 4.344-2.256v2.376c-.648.648-1.584 1.104-2.928 1.104zm12.58 2.736h3.888l4.56-12.816h-3.624l-2.688 8.52h-.048l-2.688-8.52h-3.984zm10.009-14.568h3.888v-3.096h-3.888zm.024 14.544h3.84v-12.792h-3.84zm12.766.264c3.096 0 6.528-1.68 6.528-6.648 0-5.016-3.432-6.672-6.528-6.672-3.12 0-6.552 1.656-6.552 6.672 0 4.968 3.456 6.648 6.552 6.648zm0-2.712c-1.968 0-2.688-1.776-2.688-3.912 0-2.304.84-3.864 2.688-3.864 1.92 0 2.664 1.728 2.664 3.864 0 2.328-.84 3.912-2.664 3.912zm22.799 2.784c4.464 0 6.576-2.496 7.44-6.072l-3.672-.816c-.624 2.424-1.656 3.744-3.744 3.744-2.688 0-4.176-2.352-4.176-6.096 0-3.672 1.44-5.952 4.128-5.952 2.088 0 2.952 1.392 3.528 3.432l3.696-1.08c-.768-3.192-2.712-5.592-7.2-5.592s-8.064 3.024-8.064 9.192c0 6.264 3.432 9.24 8.064 9.24zm12.708-.144c1.896 0 3.288-.744 4.464-2.064 0 .72.12 1.344.288 1.872h3.84c-.264-.648-.36-1.584-.36-3.12v-4.92c0-3.288-1.44-5.016-4.944-5.016-3.192 0-5.112 1.128-6.384 2.28l1.632 2.208c1.176-.912 2.568-1.584 4.2-1.584 1.248 0 1.728.6 1.728 1.536v.312c-5.616.456-8.112 2.088-8.112 5.04 0 2.184 1.68 3.456 3.648 3.456zm1.536-2.904c-.84 0-1.416-.408-1.416-1.224 0-1.176 1.296-1.944 4.344-2.256v2.376c-.648.648-1.584 1.104-2.928 1.104zm14.548 2.976c2.952 0 5.64-1.224 5.64-4.32 0-2.904-2.664-3.48-5.184-3.912-1.584-.288-2.28-.6-2.28-1.368 0-.696.624-1.128 1.728-1.128 1.2 0 2.472.504 3.768 1.392l1.512-2.184c-1.416-1.128-3-1.8-5.616-1.8-2.856 0-4.968 1.488-4.968 4.056 0 3 2.592 3.576 5.016 4.008 1.752.312 2.424.648 2.424 1.536 0 .84-.84 1.248-2.04 1.248-1.56 0-3.288-.648-4.44-1.656l-1.536 2.16c1.296 1.104 3.168 1.968 5.976 1.968zm13.156-.096c.84 0 2.256-.12 2.544-.192v-2.76c-.264.096-.84.144-1.272.144-1.392 0-1.776-.432-1.776-1.8v-5.544h3.288v-2.808h-3.288v-4.392h-3.84v4.392h-2.136v2.808h2.136v6.384c0 2.4.552 3.768 4.344 3.768zm10.698.096c2.232 0 4.08-.648 5.568-1.92l-1.488-2.304c-.864.792-2.28 1.536-3.792 1.536-1.608 0-2.784-.816-2.976-2.928h8.472v-.576c0-5.808-3.24-7.128-5.88-7.128s-6.432 1.704-6.432 6.672c0 4.944 3.192 6.648 6.528 6.648zm-2.64-7.896c.288-1.872 1.32-2.664 2.52-2.664 1.44 0 2.256.864 2.448 2.664zm10.804 7.632h3.84v-17.76h-3.84zm12.766.264c3.096 0 6.528-1.68 6.528-6.648 0-5.016-3.432-6.672-6.528-6.672-3.12 0-6.552 1.656-6.552 6.672 0 4.968 3.456 6.648 6.552 6.648zm0-2.712c-1.968 0-2.688-1.776-2.688-3.912 0-2.304.84-3.864 2.688-3.864 1.92 0 2.664 1.728 2.664 3.864 0 2.328-.84 3.912-2.664 3.912zm15.575 2.448h3.888v-6.312h2.52c3.552 0 7.296-.984 7.296-5.76 0-4.68-3.456-5.688-7.248-5.688h-6.456zm3.888-9.336v-5.232h2.664c2.448 0 3.336.936 3.336 2.592 0 1.704-.912 2.64-3.336 2.64zm14.779 9.528c1.895 0 3.288-.744 4.464-2.064 0 .72.12 1.344.288 1.872h3.84c-.264-.648-.36-1.584-.36-3.12v-4.92c0-3.288-1.44-5.016-4.944-5.016-3.192 0-5.112 1.128-6.384 2.28l1.632 2.208c1.176-.912 2.568-1.584 4.2-1.584 1.248 0 1.728.6 1.728 1.536v.312c-5.616.456-8.112 2.088-8.112 5.04 0 2.184 1.68 3.456 3.648 3.456zm1.536-2.904c-.84 0-1.416-.408-1.416-1.224 0-1.176 1.296-1.944 4.344-2.256v2.376c-.648.648-1.584 1.104-2.928 1.104zm13.131 2.976c2.232 0 3.648-1.272 4.416-2.256v1.992h3.864v-12.792h-3.864v8.688c-.864.744-1.752 1.296-2.784 1.296-1.08 0-1.512-.624-1.512-1.776v-8.208h-3.864v9.336c0 2.64 1.56 3.72 3.744 3.72zm11.356-.264h3.84v-17.76h-3.84zm12.767.264c3.096 0 6.528-1.68 6.528-6.648 0-5.016-3.432-6.672-6.528-6.672-3.12 0-6.552 1.656-6.552 6.672 0 4.968 3.456 6.648 6.552 6.648zm0-2.712c-1.968 0-2.688-1.776-2.688-3.912 0-2.304.84-3.864 2.688-3.864 1.92 0 2.664 1.728 2.664 3.864 0 2.328-.84 3.912-2.664 3.912zm-250.595 34.448h1.704v-7.872h4.032c3.744 0 6.384-1.464 6.384-5.04 0-3.264-2.352-4.848-6.216-4.848h-5.904zm1.704-9.384v-6.816h4.128c2.976 0 4.584.936 4.584 3.336 0 2.568-1.632 3.48-4.56 3.48zm20.246 9.72c3.552 0 5.856-2.184 6.72-5.688l-1.632-.36c-.768 2.976-2.424 4.512-5.064 4.512-3.456 0-5.712-2.88-5.712-7.8 0-4.56 2.232-7.536 5.664-7.536 2.712 0 4.032 1.464 4.824 4.272l1.632-.408c-.84-3.288-2.832-5.424-6.432-5.424-4.44 0-7.392 3.768-7.392 9.144 0 5.664 2.904 9.288 7.392 9.288zm8.837-.336h1.656l1.896-5.472h7.2l1.896 5.472h1.776l-6.288-17.832h-1.848zm4.08-6.984 3.048-8.832h.048l3.048 8.832z"/><path d="m502.824 117h11.736v-3.168h-7.824v-14.592h-3.912zm17.327.264c2.232 0 3.648-1.272 4.416-2.256v1.992h3.864v-12.792h-3.864v8.688c-.864.744-1.752 1.296-2.784 1.296-1.08 0-1.512-.624-1.512-1.776v-8.208h-3.864v9.336c0 2.64 1.56 3.72 3.744 3.72zm11.883-14.424h2.544l3.576-4.152h-3.888zm-.528 14.16h3.84v-12.792h-3.84zm11.951.264c2.952 0 5.64-1.224 5.64-4.32 0-2.904-2.664-3.48-5.184-3.912-1.584-.288-2.28-.6-2.28-1.368 0-.696.624-1.128 1.728-1.128 1.2 0 2.472.504 3.768 1.392l1.512-2.184c-1.416-1.128-3-1.8-5.616-1.8-2.856 0-4.968 1.488-4.968 4.056 0 3 2.592 3.576 5.016 4.008 1.752.312 2.424.648 2.424 1.536 0 .84-.84 1.248-2.04 1.248-1.56 0-3.288-.648-4.44-1.656l-1.536 2.16c1.296 1.104 3.168 1.968 5.976 1.968zm18.57-.264h3.912v-14.496h5.304v-3.264h-14.496v3.264h5.28zm17.05.264c2.232 0 4.08-.648 5.568-1.92l-1.488-2.304c-.864.792-2.28 1.536-3.792 1.536-1.608 0-2.784-.816-2.976-2.928h8.472v-.576c0-5.808-3.24-7.128-5.88-7.128s-6.432 1.704-6.432 6.672c0 4.944 3.192 6.648 6.528 6.648zm-2.64-7.896c.288-1.872 1.32-2.664 2.52-2.664 1.44 0 2.256.864 2.448 2.664zm10.804 7.632h3.84v-17.76h-3.84zm12.743.264c2.232 0 4.08-.648 5.568-1.92l-1.488-2.304c-.864.792-2.28 1.536-3.792 1.536-1.608 0-2.784-.816-2.976-2.928h8.472v-.576c0-5.808-3.24-7.128-5.88-7.128s-6.432 1.704-6.432 6.672c0 4.944 3.192 6.648 6.528 6.648zm-2.64-7.896c.288-1.872 1.32-2.664 2.52-2.664 1.44 0 2.256.864 2.448 2.664zm15.699 7.896c2.952 0 5.64-1.224 5.64-4.32 0-2.904-2.664-3.48-5.184-3.912-1.584-.288-2.28-.6-2.28-1.368 0-.696.624-1.128 1.728-1.128 1.2 0 2.472.504 3.768 1.392l1.512-2.184c-1.416-1.128-3-1.8-5.616-1.8-2.856 0-4.968 1.488-4.968 4.056 0 3 2.592 3.576 5.016 4.008 1.752.312 2.424.648 2.424 1.536 0 .84-.84 1.248-2.04 1.248-1.56 0-3.288-.648-4.44-1.656l-1.536 2.16c1.296 1.104 3.168 1.968 5.976 1.968zm-109.763 31.736h1.704v-7.872h4.032c3.744 0 6.384-1.464 6.384-5.04 0-3.264-2.352-4.848-6.216-4.848h-5.904zm1.704-9.384v-6.816h4.128c2.976 0 4.584.936 4.584 3.336 0 2.568-1.632 3.48-4.56 3.48zm20.246 9.72c3.552 0 5.856-2.184 6.72-5.688l-1.632-.36c-.768 2.976-2.424 4.512-5.064 4.512-3.456 0-5.712-2.88-5.712-7.8 0-4.56 2.232-7.536 5.664-7.536 2.712 0 4.032 1.464 4.824 4.272l1.632-.408c-.84-3.288-2.832-5.424-6.432-5.424-4.44 0-7.392 3.768-7.392 9.144 0 5.664 2.904 9.288 7.392 9.288zm10.253-.336h11.112v-1.56h-9.408v-7.056h6.648v-1.536h-6.648v-6.024h8.904v-1.584h-10.608z"/></g></svg>

<svg width="778" height="183" viewBox="0 0 778 183" fill="none" xmlns="http://www.w3.org/2000/svg">
<path d="M777.361 183C777.361 183 777.361 82.5726 711.831 66.0541C685.382 59.3909 656.561 64.0591 630.441 69.2361C608.199 73.6151 580.534 80.2085 560.575 67.9294C542.271 56.6478 535.253 34.5135 519.441 20.6783C493.421 -2.07449 456.424 -2.60319 424.263 4.49895C393.856 11.232 364.536 24.0697 336.95 38.2939C326.193 43.84 315.446 49.6653 303.772 52.8074C273.953 60.8472 242.52 41.8351 212.382 40.6281C166.114 38.7728 162.585 90.6422 115.1 100.477C76.9771 108.368 52.4622 74.1537 16.971 129.405C4.66868 148.557 0.700844 183 0.999927 183H777.361Z" fill="url(#paint0_linear_215_688)"/>
<path d="M190.36 117.336C194.632 117.336 198.712 114.36 198.712 108.12C198.712 101.88 194.632 98.904 190.36 98.904C186.064 98.904 181.984 101.88 181.984 108.12C181.984 114.36 186.064 117.336 190.36 117.336ZM190.36 114.192C187.6 114.192 185.896 111.84 185.896 108.12C185.896 104.4 187.6 102.144 190.36 102.144C193.096 102.144 194.824 104.4 194.824 108.12C194.824 111.84 193.096 114.192 190.36 114.192ZM206.783 117.264C210.167 117.264 211.751 115.368 212.567 113.376L209.375 112.272C208.823 114 207.887 114.552 206.855 114.552C205.079 114.552 204.359 112.92 204.359 110.64C204.359 108.096 205.343 106.776 206.903 106.776C208.031 106.776 208.775 107.304 209.279 108.936L212.519 107.856C211.775 105.792 210.431 103.944 206.951 103.944C204.119 103.944 200.495 105.504 200.495 110.616C200.495 115.584 203.783 117.264 206.783 117.264ZM219.879 117.168C220.719 117.168 222.135 117.048 222.423 116.976V114.216C222.159 114.312 221.583 114.36 221.151 114.36C219.759 114.36 219.375 113.928 219.375 112.56V107.016H222.663V104.208H219.375V99.816H215.535V104.208H213.399V107.016H215.535V113.4C215.535 115.8 216.087 117.168 219.879 117.168ZM228.273 102.84H230.817L234.393 98.688H230.505L228.273 102.84ZM227.553 117.192C229.449 117.192 230.841 116.448 232.017 115.128C232.017 115.848 232.137 116.472 232.305 117H236.145C235.881 116.352 235.785 115.416 235.785 113.88V108.96C235.785 105.672 234.345 103.944 230.841 103.944C227.649 103.944 225.729 105.072 224.457 106.224L226.089 108.432C227.265 107.52 228.657 106.848 230.289 106.848C231.537 106.848 232.017 107.448 232.017 108.384V108.696C226.401 109.152 223.905 110.784 223.905 113.736C223.905 115.92 225.585 117.192 227.553 117.192ZM229.089 114.288C228.249 114.288 227.673 113.88 227.673 113.064C227.673 111.888 228.969 111.12 232.017 110.808V113.184C231.369 113.832 230.433 114.288 229.089 114.288ZM241.669 117.024H245.557L250.117 104.208H246.493L243.805 112.728H243.757L241.069 104.208H237.085L241.669 117.024ZM251.678 102.456H255.566V99.36H251.678V102.456ZM251.702 117H255.542V104.208H251.702V117ZM264.468 117.264C267.564 117.264 270.996 115.584 270.996 110.616C270.996 105.6 267.564 103.944 264.468 103.944C261.348 103.944 257.916 105.6 257.916 110.616C257.916 115.584 261.372 117.264 264.468 117.264ZM264.468 114.552C262.5 114.552 261.78 112.776 261.78 110.64C261.78 108.336 262.62 106.776 264.468 106.776C266.388 106.776 267.132 108.504 267.132 110.64C267.132 112.968 266.292 114.552 264.468 114.552ZM287.267 117.336C291.731 117.336 293.843 114.84 294.707 111.264L291.035 110.448C290.411 112.872 289.379 114.192 287.291 114.192C284.603 114.192 283.115 111.84 283.115 108.096C283.115 104.424 284.555 102.144 287.243 102.144C289.331 102.144 290.195 103.536 290.771 105.576L294.467 104.496C293.699 101.304 291.755 98.904 287.267 98.904C282.779 98.904 279.203 101.928 279.203 108.096C279.203 114.36 282.635 117.336 287.267 117.336ZM299.975 117.192C301.871 117.192 303.263 116.448 304.439 115.128C304.439 115.848 304.559 116.472 304.727 117H308.567C308.303 116.352 308.207 115.416 308.207 113.88V108.96C308.207 105.672 306.767 103.944 303.263 103.944C300.071 103.944 298.151 105.072 296.879 106.224L298.511 108.432C299.687 107.52 301.079 106.848 302.711 106.848C303.959 106.848 304.439 107.448 304.439 108.384V108.696C298.823 109.152 296.327 110.784 296.327 113.736C296.327 115.92 298.007 117.192 299.975 117.192ZM301.511 114.288C300.671 114.288 300.095 113.88 300.095 113.064C300.095 111.888 301.391 111.12 304.439 110.808V113.184C303.791 113.832 302.855 114.288 301.511 114.288ZM316.059 117.264C319.011 117.264 321.699 116.04 321.699 112.944C321.699 110.04 319.035 109.464 316.515 109.032C314.931 108.744 314.235 108.432 314.235 107.664C314.235 106.968 314.859 106.536 315.963 106.536C317.163 106.536 318.435 107.04 319.731 107.928L321.243 105.744C319.827 104.616 318.243 103.944 315.627 103.944C312.771 103.944 310.659 105.432 310.659 108C310.659 111 313.251 111.576 315.675 112.008C317.427 112.32 318.099 112.656 318.099 113.544C318.099 114.384 317.259 114.792 316.059 114.792C314.499 114.792 312.771 114.144 311.619 113.136L310.083 115.296C311.379 116.4 313.251 117.264 316.059 117.264ZM329.215 117.168C330.055 117.168 331.471 117.048 331.759 116.976V114.216C331.495 114.312 330.919 114.36 330.487 114.36C329.095 114.36 328.711 113.928 328.711 112.56V107.016H331.999V104.208H328.711V99.816H324.871V104.208H322.735V107.016H324.871V113.4C324.871 115.8 325.423 117.168 329.215 117.168ZM339.913 117.264C342.145 117.264 343.993 116.616 345.481 115.344L343.993 113.04C343.129 113.832 341.713 114.576 340.201 114.576C338.593 114.576 337.417 113.76 337.225 111.648H345.697V111.072C345.697 105.264 342.457 103.944 339.817 103.944C337.177 103.944 333.385 105.648 333.385 110.616C333.385 115.56 336.577 117.264 339.913 117.264ZM337.273 109.368C337.561 107.496 338.593 106.704 339.793 106.704C341.233 106.704 342.049 107.568 342.241 109.368H337.273ZM348.077 117H351.917V99.24H348.077V117ZM360.843 117.264C363.939 117.264 367.371 115.584 367.371 110.616C367.371 105.6 363.939 103.944 360.843 103.944C357.723 103.944 354.291 105.6 354.291 110.616C354.291 115.584 357.747 117.264 360.843 117.264ZM360.843 114.552C358.875 114.552 358.155 112.776 358.155 110.64C358.155 108.336 358.995 106.776 360.843 106.776C362.763 106.776 363.507 108.504 363.507 110.64C363.507 112.968 362.667 114.552 360.843 114.552ZM376.418 117H380.306V110.688H382.826C386.378 110.688 390.122 109.704 390.122 104.928C390.122 100.248 386.666 99.24 382.874 99.24H376.418V117ZM380.306 107.664V102.432H382.97C385.418 102.432 386.306 103.368 386.306 105.024C386.306 106.728 385.394 107.664 382.97 107.664H380.306ZM395.085 117.192C396.98 117.192 398.373 116.448 399.549 115.128C399.549 115.848 399.669 116.472 399.837 117H403.677C403.413 116.352 403.317 115.416 403.317 113.88V108.96C403.317 105.672 401.877 103.944 398.373 103.944C395.181 103.944 393.261 105.072 391.989 106.224L393.621 108.432C394.797 107.52 396.189 106.848 397.821 106.848C399.069 106.848 399.549 107.448 399.549 108.384V108.696C393.933 109.152 391.437 110.784 391.437 113.736C391.437 115.92 393.117 117.192 395.085 117.192ZM396.621 114.288C395.781 114.288 395.205 113.88 395.205 113.064C395.205 111.888 396.501 111.12 399.549 110.808V113.184C398.901 113.832 397.965 114.288 396.621 114.288ZM409.752 117.264C411.984 117.264 413.4 115.992 414.168 115.008V117H418.032V104.208H414.168V112.896C413.304 113.64 412.416 114.192 411.384 114.192C410.304 114.192 409.872 113.568 409.872 112.416V104.208H406.008V113.544C406.008 116.184 407.568 117.264 409.752 117.264ZM421.108 117H424.948V99.24H421.108V117ZM433.875 117.264C436.971 117.264 440.403 115.584 440.403 110.616C440.403 105.6 436.971 103.944 433.875 103.944C430.755 103.944 427.323 105.6 427.323 110.616C427.323 115.584 430.779 117.264 433.875 117.264ZM433.875 114.552C431.907 114.552 431.187 112.776 431.187 110.64C431.187 108.336 432.027 106.776 433.875 106.776C435.795 106.776 436.539 108.504 436.539 110.64C436.539 112.968 435.699 114.552 433.875 114.552ZM183.28 149H184.984V141.128H189.016C192.76 141.128 195.4 139.664 195.4 136.088C195.4 132.824 193.048 131.24 189.184 131.24H183.28V149ZM184.984 139.616V132.8H189.112C192.088 132.8 193.696 133.736 193.696 136.136C193.696 138.704 192.064 139.616 189.136 139.616H184.984ZM205.23 149.336C208.782 149.336 211.086 147.152 211.95 143.648L210.318 143.288C209.55 146.264 207.894 147.8 205.254 147.8C201.798 147.8 199.542 144.92 199.542 140C199.542 135.44 201.774 132.464 205.206 132.464C207.918 132.464 209.238 133.928 210.03 136.736L211.662 136.328C210.822 133.04 208.83 130.904 205.23 130.904C200.79 130.904 197.838 134.672 197.838 140.048C197.838 145.712 200.742 149.336 205.23 149.336ZM214.067 149H215.723L217.619 143.528H224.819L226.715 149H228.491L222.203 131.168H220.355L214.067 149ZM218.147 142.016L221.195 133.184H221.243L224.291 142.016H218.147Z" fill="white"/>
<path d="M502.824 117H514.56V113.832H506.736V99.24H502.824V117ZM520.151 117.264C522.383 117.264 523.799 115.992 524.567 115.008V117H528.431V104.208H524.567V112.896C523.703 113.64 522.815 114.192 521.783 114.192C520.703 114.192 520.271 113.568 520.271 112.416V104.208H516.407V113.544C516.407 116.184 517.967 117.264 520.151 117.264ZM532.034 102.84H534.578L538.154 98.688H534.266L532.034 102.84ZM531.506 117H535.346V104.208H531.506V117ZM543.457 117.264C546.409 117.264 549.097 116.04 549.097 112.944C549.097 110.04 546.433 109.464 543.913 109.032C542.329 108.744 541.633 108.432 541.633 107.664C541.633 106.968 542.257 106.536 543.361 106.536C544.561 106.536 545.833 107.04 547.129 107.928L548.641 105.744C547.225 104.616 545.641 103.944 543.025 103.944C540.169 103.944 538.057 105.432 538.057 108C538.057 111 540.649 111.576 543.073 112.008C544.825 112.32 545.497 112.656 545.497 113.544C545.497 114.384 544.657 114.792 543.457 114.792C541.897 114.792 540.169 114.144 539.017 113.136L537.481 115.296C538.777 116.4 540.649 117.264 543.457 117.264ZM562.027 117H565.939V102.504H571.243V99.24H556.747V102.504H562.027V117ZM579.077 117.264C581.309 117.264 583.157 116.616 584.645 115.344L583.157 113.04C582.293 113.832 580.877 114.576 579.365 114.576C577.757 114.576 576.581 113.76 576.389 111.648H584.861V111.072C584.861 105.264 581.621 103.944 578.981 103.944C576.341 103.944 572.549 105.648 572.549 110.616C572.549 115.56 575.741 117.264 579.077 117.264ZM576.437 109.368C576.725 107.496 577.757 106.704 578.957 106.704C580.397 106.704 581.213 107.568 581.405 109.368H576.437ZM587.241 117H591.081V99.24H587.241V117ZM599.984 117.264C602.216 117.264 604.064 116.616 605.552 115.344L604.064 113.04C603.2 113.832 601.784 114.576 600.272 114.576C598.664 114.576 597.488 113.76 597.296 111.648H605.768V111.072C605.768 105.264 602.528 103.944 599.888 103.944C597.248 103.944 593.456 105.648 593.456 110.616C593.456 115.56 596.648 117.264 599.984 117.264ZM597.344 109.368C597.632 107.496 598.664 106.704 599.864 106.704C601.304 106.704 602.12 107.568 602.312 109.368H597.344ZM613.043 117.264C615.995 117.264 618.683 116.04 618.683 112.944C618.683 110.04 616.019 109.464 613.499 109.032C611.915 108.744 611.219 108.432 611.219 107.664C611.219 106.968 611.843 106.536 612.947 106.536C614.147 106.536 615.419 107.04 616.715 107.928L618.227 105.744C616.811 104.616 615.227 103.944 612.611 103.944C609.755 103.944 607.643 105.432 607.643 108C607.643 111 610.235 111.576 612.659 112.008C614.411 112.32 615.083 112.656 615.083 113.544C615.083 114.384 614.243 114.792 613.043 114.792C611.483 114.792 609.755 114.144 608.603 113.136L607.067 115.296C608.363 116.4 610.235 117.264 613.043 117.264ZM503.28 149H504.984V141.128H509.016C512.76 141.128 515.4 139.664 515.4 136.088C515.4 132.824 513.048 131.24 509.184 131.24H503.28V149ZM504.984 139.616V132.8H509.112C512.088 132.8 513.696 133.736 513.696 136.136C513.696 138.704 512.064 139.616 509.136 139.616H504.984ZM525.23 149.336C528.782 149.336 531.086 147.152 531.95 143.648L530.318 143.288C529.55 146.264 527.894 147.8 525.254 147.8C521.798 147.8 519.542 144.92 519.542 140C519.542 135.44 521.774 132.464 525.206 132.464C527.918 132.464 529.238 133.928 530.03 136.736L531.662 136.328C530.822 133.04 528.83 130.904 525.23 130.904C520.79 130.904 517.838 134.672 517.838 140.048C517.838 145.712 520.742 149.336 525.23 149.336ZM535.483 149H546.595V147.44H537.187V140.384H543.835V138.848H537.187V132.824H546.091V131.24H535.483V149Z" fill="white"/>
<defs>
<linearGradient id="paint0_linear_215_688" x1="-360.612" y1="-751.839" x2="483.551" y2="266.684" gradientUnits="userSpaceOnUse">
<stop stop-color="#FFA01D"/>
<stop offset="0.22" stop-color="#FFA01D"/>
<stop offset="0.44" stop-color="#32A4C9"/>
<stop offset="0.74" stop-color="#0089C8"/>
<stop offset="1" stop-color="#0072B6"/>
</linearGradient>
</defs>
</svg>
